src/actions/16/format-number-percent.svg

<svg viewBox="0 0 16 16" xmlns="http://www.w3.org/2000/svg">
 <defs>
  <style type="text/css">.ColorScheme-Text {
        color:#2e3440;
      }</style>
 </defs>
 <path class="ColorScheme-Text" d="m4.5 2c-1.3807 0-2.5 1.1193-2.5 2.5s1.1193 2.5 2.5 2.5 2.5-1.1193 2.5-2.5-1.1193-2.5-2.5-2.5zm6.9062 0-7.625 11.438 0.8125 0.5625 7.625-11.438-0.8125-0.5625zm-6.9062 1c0.82843 0 1.5 0.67157 1.5 1.5s-0.67157 1.5-1.5 1.5-1.5-0.67157-1.5-1.5 0.67157-1.5 1.5-1.5zm7 6c-1.3807 0-2.5 1.1192-2.5 2.5 0 1.3807 1.1193 2.5 2.5 2.5s2.5-1.1193 2.5-2.5c0-1.3808-1.1193-2.5-2.5-2.5zm0 1c0.82843 0 1.5 0.67155 1.5 1.5 0 0.82837-0.67157 1.5-1.5 1.5s-1.5-0.67163-1.5-1.5c0-0.82845 0.67157-1.5 1.5-1.5z" fill="currentColor"/>
</svg>

<svg xmlns="http://www.w3.org/2000/svg" viewBox="0 0 16 16">
  <defs id="defs3051">
    <style type="text/css" id="current-color-scheme">
      .ColorScheme-Text {
        color:#2e3440;
      }
      </style>
  </defs>
 <path style="fill:currentColor;fill-opacity:1;stroke:none" 
       d="M 4.5 2 C 3.11929 2 2 3.11929 2 4.5 C 2 5.88071 3.11929 7 4.5 7 C 5.88071 7 7 5.88071 7 4.5 C 7 3.11929 5.88071 2 4.5 2 z M 11.40625 2 L 3.78125 13.4375 L 4.59375 14 L 12.21875 2.5625 L 11.40625 2 z M 4.5 3 C 5.32843 3 6 3.67157 6 4.5 C 6 5.32843 5.32843 6 4.5 6 C 3.67157 6 3 5.32843 3 4.5 C 3 3.67157 3.67157 3 4.5 3 z M 11.5 9 C 10.11929 9 9 10.11925 9 11.5 C 9 12.88067 10.11929 14 11.5 14 C 12.88071 14 14 12.88067 14 11.5 C 14 10.11925 12.88071 9 11.5 9 z M 11.5 10 C 12.32843 10 13 10.67155 13 11.5 C 13 12.32837 12.32843 13 11.5 13 C 10.67157 13 10 12.32837 10 11.5 C 10 10.67155 10.67157 10 11.5 10 z "
     class="ColorScheme-Text"
     />
</svg>
